X:1
T:Title
%%score { ( 1 3 ) | ( 2 4 ) }
L:1/8
M:4/4
K:F
V:1 treble nm="Grand Piano"
V:3 treble 
V:2 bass 
V:4 bass 
V:1
 z4 z2[Q:1/4=100] F>G | A>A A>[GB] [Ac]2 [GB]>[FA] | G2- [EG-]>[EG-] [EG]2 [EG]>[FA] | %3
[M:3/4] [GB]>[GB] [GB]>[Ac] [Bd]2 |[M:1/4] [Ac]>[GB] |[M:4/4] A6 z2 | %6
 [Ac]>[Ac] [Ac]>[Ac] [Ac]2 [GB]>[Ac] | d>d d>d d2 [Be]>[Be] | %8
 [Af]>[FAc] [Fce]>[FBd] [FAc][GB] [CFA]>[B,EG] |[M:7/8] F-F-F- F- F3 |[M:1/4] A>[GB] | %11
[M:4/4] [Ac]2 [Bd]2 [Ac]2 [FA]>[GB] | [Ac]2 [Bd]2 [Ac]2 [FA]>[GB] | %13
 [Ac]>[Ac] [Ac]>[Ac] [Bd]>[Ac] [GB]>[FA] | G2- [EG-]>[EG-] [EG]2 [CFA]>[CGB] | %15
 [Ac]2 [Bd]2 [Ac]2 [FA]>[GB] | [Ac]2 [Bd]2 [Ac]2 [Be]>[Be] | %17
 [Af]>[FAc] [Fce]>[FBd] [FAc]>[CGB] [CFA]>[B,EG] |[M:7/8] F-F-F- F- F3 |] %19
V:2
 z4 z2 [F,A,]>[F,B,F] | [F,CF]>[F,CF] [F,CF]>[F,C] [F,C]2 [E,C]>[F,C] | %2
 [C,C]2 [C,C]>[C,C] [C,C]2 [C,C]>[C,C] |[M:3/4] [C,C]>[C,C] [C,C]>[C,C] [C,C]2 | %4
[M:1/4] [C,C]>[C,C] |[M:4/4] [F,CF]2 [F,C]>[F,C] [F,C]2 [F,CF]>[F,C] | %6
 [F,C]>[F,C] [F,C]>[F,C] [F,C]2 [F,C]>[F,C] | [B,B]>[B,B] [B,B]>[B,B] [B,B]2[K:bass] [G,C]>[G,C] | %8
 [F,C]>F, B,,>B,, z C C,>C, |[M:7/8] [F,A,]2 [F,B,]>[F,B,] [F,A,]3 |[M:1/4] [F,CF]>[F,C] | %11
[M:4/4] [F,F]2 [F,F]2 [F,F]2 [F,C]>[F,C] | [F,F]2 [F,F]2 [F,F]2 [F,C]>[F,C] | %13
 [F,F]>[F,F] [F,F]>[F,F] [F,F]>[F,F] [F,C]>[F,C] | z4 C2 z2 | [F,F]2 [F,F]2 [F,F]2 [F,C]>[F,C] | %16
 [F,F]2 [F,F]2 [F,F]2 [G,C]>[G,C] | [F,C]>F, B,,>B,, C,>C, C,>C, |[M:7/8] z2 B,>B, A,3 |] %19
V:3
 x8 | x8 | E2 z2 z4 |[M:3/4] x6 |[M:1/4] x2 |[M:4/4] z2 F>F F2 A>[GB] | x8 | x8 | x8 | %9
[M:7/8] z2 D>D C3 |[M:1/4] x2 |[M:4/4] x8 | x8 | x8 | E2 z2 z4 | x8 | x8 | x8 | %18
[M:7/8] A,2 D>D C3 |] %19
V:4
 x8 | x8 | x8 |[M:3/4] x6 |[M:1/4] x2 |[M:4/4] x8 | x8 | x6[K:bass] x2 | z4 C,2 z2 |[M:7/8] x7 | %10
[M:1/4] x2 |[M:4/4] x8 | x8 | x8 | [C,C]2 [E,C]>[G,C] z B, A,>G, | x8 | x8 | x8 | %18
[M:7/8] F,-F,-F,- F,- F,3 |] %19

